X:140
T: Patsy Hanley's
S: J.O'Sullivan - Kelly Bros.
Z: B.Black
R: reel
M: 4/4
L: 1/8
K: D
AF F2 E3 F | DEFD E3 B | AF F2 A3 B | defd efeB |
AF F2 E3 F | DEFD E3 B | AF F2 A3 B | defe d4 :|
f2 df efde | f3 e fa a2 | fd d2 efdB | ABdf efde |
f2 df efde | f3 e fa a2 | bf f2 afdB | ABdf ef d2 :|
